packages/assets/static/images/icons/person-simple-hike.svg

<svg width="24" height="24" viewBox="0 0 24 24" xmlns="http://www.w3.org/2000/svg">
<path d="M15.1873 7.5C15.7807 7.5 16.3607 7.32405 16.854 6.99441C17.3474 6.66477 17.7319 6.19623 17.959 5.64805C18.186 5.09987 18.2454 4.49667 18.1297 3.91473C18.0139 3.33279 17.7282 2.79824 17.3086 2.37868C16.8891 1.95912 16.3545 1.6734 15.7726 1.55765C15.1906 1.44189 14.5874 1.5013 14.0393 1.72836C13.4911 1.95543 13.0226 2.33994 12.6929 2.83329C12.3633 3.32664 12.1873 3.90666 12.1873 4.5C12.1873 5.29565 12.5034 6.05871 13.066 6.62132C13.6286 7.18393 14.3917 7.5 15.1873 7.5ZM15.1873 3C15.484 3 15.774 3.08797 16.0207 3.2528C16.2674 3.41762 16.4596 3.65189 16.5731 3.92598C16.6867 4.20007 16.7164 4.50167 16.6585 4.79264C16.6006 5.08361 16.4578 5.35088 16.248 5.56066C16.0382 5.77044 15.7709 5.9133 15.48 5.97118C15.189 6.02906 14.8874 5.99935 14.6133 5.88582C14.3392 5.77229 14.1049 5.58003 13.9401 5.33336C13.7753 5.08668 13.6873 4.79667 13.6873 4.5C13.6873 4.10218 13.8454 3.72065 14.1267 3.43934C14.408 3.15804 14.7895 3 15.1873 3ZM19.6873 13.5V21.75C19.6873 21.9489 19.6083 22.1397 19.4677 22.2803C19.327 22.421 19.1362 22.5 18.9373 22.5C18.7384 22.5 18.5476 22.421 18.407 22.2803C18.2663 22.1397 18.1873 21.9489 18.1873 21.75V14.2181C15.7733 14.0072 14.967 12.7631 14.2498 11.6531C13.9826 11.2416 13.7286 10.8497 13.3939 10.5103L12.1376 13.3988L15.6251 15.8897C15.7219 15.9593 15.8007 16.051 15.855 16.1571C15.9093 16.2632 15.9375 16.3808 15.9373 16.5V21.75C15.9373 21.9489 15.8583 22.1397 15.7177 22.2803C15.577 22.421 15.3862 22.5 15.1873 22.5C14.9884 22.5 14.7976 22.421 14.657 22.2803C14.5163 22.1397 14.4373 21.9489 14.4373 21.75V16.8863L11.5245 14.805L8.37545 22.0491C8.31716 22.1831 8.22098 22.2972 8.09873 22.3773C7.97648 22.4574 7.83348 22.5001 7.68732 22.5C7.58433 22.5002 7.48244 22.4788 7.38826 22.4372C7.20611 22.3578 7.06292 22.2093 6.99015 22.0244C6.91738 21.8394 6.92097 21.6332 7.00013 21.4509L12.3926 9.04688C12.4336 8.95278 12.4934 8.86808 12.5684 8.79802C12.6434 8.72797 12.7319 8.67405 12.8286 8.6396C12.9253 8.60515 13.028 8.59091 13.1304 8.59775C13.2328 8.60459 13.3327 8.63237 13.4239 8.67938C13.6933 8.82 13.9451 8.99215 14.1739 9.19219C14.7711 9.70969 15.1592 10.3088 15.5014 10.8375C16.2214 11.9475 16.7408 12.75 18.9326 12.75C19.0315 12.7494 19.1295 12.7683 19.2211 12.8057C19.3126 12.8432 19.3959 12.8983 19.466 12.968C19.5361 13.0377 19.5918 13.1206 19.6298 13.2119C19.6678 13.3032 19.6873 13.4011 19.6873 13.5ZM7.68732 14.25C7.83406 14.2499 7.97756 14.2068 8.10004 14.126C8.22252 14.0452 8.3186 13.9302 8.37638 13.7953L10.6264 8.54531C10.7046 8.36255 10.7071 8.15621 10.6333 7.97163C10.5594 7.78705 10.4153 7.63933 10.2326 7.56094L7.60763 6.43594C7.42487 6.35771 7.21853 6.35523 7.03395 6.42907C6.84937 6.5029 6.70165 6.647 6.62326 6.82969L4.37326 12.0797C4.29503 12.2625 4.29255 12.4688 4.36639 12.6534C4.44022 12.838 4.58432 12.9857 4.76701 13.0641L7.39201 14.1891C7.48531 14.2292 7.58577 14.2499 7.68732 14.25ZM6.04763 11.9813L7.70607 8.10938L8.95295 8.64375L7.29357 12.5147L6.04763 11.9813Z"/>
</svg>

<svg viewBox="0 0 24 24" xmlns="http://www.w3.org/2000/svg" aria-hidden="true" fill="currentColor"><path d="M15.187 7.5a3 3 0 1 0 0-6 3 3 0 0 0 0 6m0-4.5a1.5 1.5 0 1 1 0 3 1.5 1.5 0 0 1 0-3m4.5 10.5v8.25a.75.75 0 1 1-1.5 0v-7.532c-2.414-.21-3.22-1.455-3.937-2.565-.267-.411-.521-.803-.856-1.143l-1.256 2.89 3.487 2.49a.75.75 0 0 1 .312.611v5.25a.75.75 0 1 1-1.5 0v-4.864l-2.912-2.081-3.15 7.244A.75.75 0 0 1 7 21.451l5.393-12.404a.75.75 0 0 1 1.03-.368q.406.212.75.513c.598.518.986 1.117 1.328 1.646.72 1.11 1.24 1.912 3.432 1.912a.75.75 0 0 1 .754.75m-12 .75a.75.75 0 0 0 .69-.455l2.25-5.25a.75.75 0 0 0-.394-.984L7.608 6.436a.75.75 0 0 0-.985.394l-2.25 5.25a.75.75 0 0 0 .394.984l2.625 1.125a.8.8 0 0 0 .295.061m-1.64-2.269 1.66-3.872 1.246.535-1.66 3.87z"/></svg>
